;FLAVOR:Marlin
;TIME:13442
;Filament used: 11.1069m
;Layer height: 0.2
;MINX:35.5
;MINY:67.25
;MINZ:0.2
;MAXX:184.5
;MAXY:152.75
;MAXZ:30.4
;Generated with Cura_SteamEngine 4.3.0
M140 S70
M105
M190 S70
M104 S200
M105
M109 S200
M82 ;absolute extrusion mode
M201 X500.00 Y500.00 Z100.00 E5000.00 ;Setup machine max acceleration
M203 X500.00 Y500.00 Z10.00 E50.00 ;Setup machine max feedrate
M204 P500.00 R1000.00 T500.00 ;Setup Print/Retract/Travel acceleration
M205 X8.00 Y8.00 Z0.40 E5.00 ;Setup Jerk
M220 S100 ;Reset Feedrate
M221 S100 ;Reset Flowrate

G28 ;Home

G92 E0 ;Reset Extruder
G1 Z2.0 F3000 ;Move Z Axis up
G1 X10.1 Y20 Z0.28 F5000.0 ;Move to start position
G1 X10.1 Y200.0 Z0.28 F1500.0 E15 ;Draw the first line
G1 X10.4 Y200.0 Z0.28 F5000.0 ;Move to side a little
G1 X10.4 Y20 Z0.28 F1500.0 E30 ;Draw the second line
G92 E0 ;Reset Extruder
G1 Z2.0 F3000 ;Move Z Axis up

G92 E0
G92 E0
G1 F2700 E-5
;LAYER_COUNT:152
;LAYER:0
M107
G0 F6000 X43.195 Y69.634 Z0.2
;TYPE:SKIRT
G1 F2700 E0
G1 F1200 X43.637 Y69.371 E0.01711
G1 X44.698 Y68.816 E0.05693
G1 X44.937 Y68.707 E0.06567
G1 X45.398 Y68.509 E0.08236
G1 X45.898 Y68.308 E0.10028
G1 X47.107 Y67.902 E0.1427
G1 X47.338 Y67.839 E0.15066
G1 X47.766 Y67.731 E0.16534
G1 X48.205 Y67.63 E0.18033
G1 X49.544 Y67.408 E0.22547
G1 X50.311 Y67.329 E0.25111
G1 X50.798 Y67.29 E0.26736
G1 X51.021 Y67.277 E0.27479
G1 X51.511 Y67.259 E0.2911
G1 X52.026 Y67.252 E0.30823
G1 X52.161 Y67.251 E0.31272
G1 X52.878 Y67.25 E0.33657
G1 X167.713 Y67.25 E4.156
G1 X167.869 Y67.251 E4.16119
G1 X168.575 Y67.261 E4.18467
G1 X168.993 Y67.275 E4.19858
G1 X169.28 Y67.29 E4.20814
G1 X169.719 Y67.322 E4.22278
G1 X170.119 Y67.359 E4.23614
G1 X171.415 Y67.557 E4.27975
G1 X172.109 Y67.706 E4.30335
G1 X173.203 Y68.001 E4.34104
G1 X173.621 Y68.137 E4.35566
G1 X174.554 Y68.487 E4.3888
G1 X175.032 Y68.692 E4.4061
G1 X176.081 Y69.21 E4.44502
G1 X176.325 Y69.347 E4.45432
G1 X176.781 Y69.618 E4.47197
G1 X177.223 Y69.895 E4.48931
G1 X178.227 Y70.605 E4.53021
G1 X178.422 Y70.76 E4.5385
G1 X178.81 Y71.084 E4.55531
G1 X179.148 Y71.379 E4.57023
G1 X180.103 Y72.32 E4.61483
G1 X180.609 Y72.884 E4.64003
G1 X181.34 Y73.792 E4.6788
G1 X181.571 Y74.112 E4.69192
G1 X182.099 Y74.915 E4.72389
G1 X182.374 Y75.376 E4.74174
G1 X182.952 Y76.484 E4.78331
G1 X183.064 Y76.732 E4.79236
G1 X183.249 Y77.166 E4.80805
G1 X183.443 Y77.65 E4.82539
G1 X183.827 Y78.782 E4.86515
G1 X183.898 Y79.036 E4.87392
G1 X184.031 Y79.563 E4.892
G1 X184.129 Y79.995 E4.90673
G1 X184.343 Y81.293 E4.95049
G1 X184.417 Y82.006 E4.97433
G1 X184.459 Y82.528 E4.99175
G1 X184.476 Y82.832 E5.00187
G1 X184.493 Y83.345 E5.01895
G1 X184.5 Y84.105 E5.04423
G1 X184.5 Y135.952 E6.76866
G1 X184.499 Y136.105 E6.77375
G1 X184.489 Y136.822 E6.7976
G1 X184.476 Y137.232 E6.81125
G1 X184.462 Y137.505 E6.82034
G1 X184.43 Y137.947 E6.83508
G1 X184.392 Y138.361 E6.8489
G1 X184.193 Y139.665 E6.89278
G1 X184.044 Y140.359 E6.91639
G1 X183.749 Y141.453 E6.95407
G1 X183.613 Y141.871 E6.96869
G1 X183.264 Y142.801 E7.00173
G1 X183.06 Y143.277 E7.01896
G1 X182.553 Y144.306 E7.05711
G1 X182.419 Y144.546 E7.06625
G1 X182.137 Y145.023 E7.08468
G1 X181.857 Y145.47 E7.10223
G1 X181.137 Y146.487 E7.14367
G1 X180.98 Y146.684 E7.15205
G1 X180.667 Y147.059 E7.16829
G1 X180.373 Y147.396 E7.18317
G1 X179.43 Y148.353 E7.22786
G1 X178.866 Y148.859 E7.25306
G1 X177.972 Y149.58 E7.29126
G1 X177.653 Y149.811 E7.30436
G1 X176.803 Y150.369 E7.33817
G1 X176.34 Y150.643 E7.35607
G1 X175.302 Y151.184 E7.395
G1 X175.063 Y151.293 E7.40374
G1 X174.602 Y151.491 E7.42042
G1 X174.102 Y151.692 E7.43835
G1 X172.893 Y152.098 E7.48077
G1 X172.662 Y152.161 E7.48873
G1 X172.234 Y152.269 E7.50341
G1 X171.795 Y152.37 E7.51839
G1 X170.456 Y152.592 E7.56354
G1 X169.689 Y152.671 E7.58918
G1 X169.205 Y152.71 E7.60533
G1 X168.983 Y152.723 E7.61273
G1 X168.437 Y152.742 E7.6309
G1 X167.529 Y152.75 E7.6611
G1 X52.287 Y152.75 E11.49407
G1 X52.131 Y152.749 E11.49926
G1 X51.425 Y152.739 E11.52274
G1 X51.007 Y152.725 E11.53665
G1 X50.72 Y152.71 E11.54621
G1 X50.281 Y152.678 E11.56085
G1 X49.881 Y152.641 E11.57421
G1 X48.585 Y152.443 E11.61781
G1 X47.891 Y152.294 E11.64142
G1 X46.797 Y151.999 E11.67911
G1 X46.379 Y151.863 E11.69373
G1 X45.446 Y151.513 E11.72687
G1 X44.968 Y151.308 E11.74417
G1 X43.919 Y150.79 E11.78308
G1 X43.675 Y150.653 E11.79239
G1 X43.2 Y150.37 E11.81078
G1 X42.76 Y150.093 E11.82807
G1 X41.812 Y149.424 E11.86666
G1 X41.614 Y149.268 E11.87505
G1 X41.18 Y148.908 E11.8938
G1 X40.837 Y148.608 E11.90896
G1 X39.892 Y147.675 E11.95313
G1 X39.402 Y147.129 E11.97753
G1 X38.693 Y146.252 E12.01504
G1 X38.461 Y145.933 E12.02816
G1 X37.908 Y145.094 E12.06158
G1 X37.675 Y144.703 E12.07672
G1 X37.068 Y143.53 E12.12065
G1 X36.751 Y142.815 E12.14666
G1 X36.308 Y141.64 E12.18842
G1 X36.202 Y141.301 E12.20024
G1 X35.981 Y140.484 E12.22839
G1 X35.88 Y140.045 E12.24337
G1 X35.658 Y138.706 E12.28851
G1 X35.579 Y137.939 E12.31416
G1 X35.537 Y137.412 E12.33174
G1 X35.521 Y137.119 E12.3415
G1 X35.505 Y136.616 E12.35824
G1 X35.5 Y136.049 E12.3771
G1 X35.5 Y84.037 E14.10703
G1 X35.501 Y83.881 E14.11222
G1 X35.511 Y83.174 E14.13573
G1 X35.525 Y82.754 E14.14971
G1 X35.54 Y82.468 E14.15924
G1 X35.572 Y82.031 E14.17381
G1 X35.609 Y81.631 E14.18717
G1 X35.807 Y80.335 E14.23078
G1 X35.956 Y79.641 E14.25438
G1 X36.245 Y78.565 E14.29144
G1 X36.376 Y78.16 E14.3056
G1 X36.729 Y77.217 E14.33909
G1 X36.943 Y76.717 E14.35718
G1 X37.474 Y75.643 E14.39703
G1 X37.611 Y75.4 E14.4063
G1 X37.881 Y74.946 E14.42387
G1 X38.142 Y74.531 E14.44018
G1 X38.796 Y73.601 E14.47799
G1 X38.97 Y73.379 E14.48737
G1 X39.342 Y72.93 E14.50677
G1 X39.707 Y72.512 E14.52522
G1 X40.547 Y71.65 E14.56526
G1 X40.721 Y71.49 E14.57312
G1 X41.136 Y71.128 E14.59143
G1 X41.527 Y70.803 E14.60835
G1 X42.448 Y70.115 E14.64658
G1 X42.71 Y69.94 E14.65706
G1 X43.195 Y69.634 E14.67613
G0 F6000 X43.4 Y69.978
G1 F1200 X43.842 Y69.715 E14.69324
G1 X44.864 Y69.18 E14.73161
G1 X45.103 Y69.071 E14.74035
G1 X45.547 Y68.88 E14.75642
G1 X46.047 Y68.679 E14.77434
G1 X47.212 Y68.288 E14.81522
G1 X47.443 Y68.225 E14.82318
G1 X47.855 Y68.121 E14.83731
G1 X48.294 Y68.02 E14.8523
G1 X49.585 Y67.806 E14.89582
G1 X50.352 Y67.727 E14.92147
G1 X50.821 Y67.689 E14.93712
G1 X51.044 Y67.676 E14.94455
G1 X51.517 Y67.659 E14.96029
G1 X52.032 Y67.652 E14.97742
G1 X52.161 Y67.651 E14.98171
G1 X52.878 Y67.65 E15.00556
G1 X167.713 Y67.65 E18.82498
G1 X167.863 Y67.651 E18.82997
G1 X168.569 Y67.661 E18.85346
G1 X168.972 Y67.674 E18.86687
G1 X169.259 Y67.689 E18.87643
G1 X169.682 Y67.72 E18.89053
G1 X170.082 Y67.757 E18.9039
G1 X171.331 Y67.948 E18.94592
G1 X172.025 Y68.097 E18.96953
G1 X173.08 Y68.381 E19.00587
G1 X173.498 Y68.517 E19.02049
G1 X174.396 Y68.855 E19.0524
G1 X174.874 Y69.06 E19.0697
G1 X175.886 Y69.559 E19.10723
G1 X176.13 Y69.696 E19.11653
G1 X176.569 Y69.957 E19.13352
G1 X177.011 Y70.234 E19.15087
G1 X177.978 Y70.918 E19.19027
G1 X178.173 Y71.073 E19.19855
G1 X178.547 Y71.385 E19.21475
G1 X178.885 Y71.68 E19.22967
G1 X179.805 Y72.587 E19.27264
G1 X180.311 Y73.151 E19.29784
G1 X181.016 Y74.026 E19.33522
G1 X181.247 Y74.346 E19.34834
G1 X181.755 Y75.12 E19.37914
G1 X182.03 Y75.581 E19.39699
G1 X182.588 Y76.648 E19.43704
G1 X182.7 Y76.896 E19.44609
G1 X182.878 Y77.315 E19.46123
G1 X183.072 Y77.799 E19.47857
G1 X183.442 Y78.889 E19.51686
G1 X183.513 Y79.143 E19.52563
G1 X183.641 Y79.652 E19.54309
G1 X183.739 Y80.084 E19.55782
G1 X183.945 Y81.335 E19.59999
G1 X184.019 Y82.048 E19.62383
G1 X184.059 Y82.55 E19.64058
G1 X184.076 Y82.854 E19.65071
G1 X184.093 Y83.348 E19.66715
G1 X184.1 Y84.108 E19.69243
G1 X184.1 Y135.952 E21.41677
G1 X184.099 Y136.1 E21.42169
G1 X184.089 Y136.817 E21.44554
G1 X184.076 Y137.212 E21.45868
G1 X184.062 Y137.485 E21.46777
G1 X184.032 Y137.911 E21.48198
G1 X183.994 Y138.325 E21.49581
G1 X183.802 Y139.581 E21.53807
G1 X183.653 Y140.275 E21.56167
G1 X183.369 Y141.33 E21.59801
G1 X183.233 Y141.748 E21.61263
G1 X182.896 Y142.644 E21.64447
G1 X182.692 Y143.12 E21.6617
G1 X182.204 Y144.111 E21.69844
G1 X182.07 Y144.351 E21.70758
G1 X181.798 Y144.811 E21.72535
G1 X181.518 Y145.258 E21.7429
G1 X180.825 Y146.237 E21.78279
G1 X180.668 Y146.434 E21.79117
G1 X180.366 Y146.796 E21.80685
G1 X180.072 Y147.133 E21.82172
G1 X179.163 Y148.055 E21.86479
G1 X178.599 Y148.561 E21.88999
G1 X177.737 Y149.256 E21.92682
G1 X177.418 Y149.487 E21.93992
G1 X176.6 Y150.024 E21.97246
G1 X176.137 Y150.298 E21.99036
G1 X175.136 Y150.82 E22.02791
G1 X174.897 Y150.929 E22.03664
G1 X174.453 Y151.12 E22.05272
G1 X173.953 Y151.321 E22.07064
G1 X172.788 Y151.712 E22.11151
G1 X172.557 Y151.775 E22.11948
G1 X172.145 Y151.879 E22.13361
G1 X171.706 Y151.98 E22.14859
G1 X170.415 Y152.194 E22.19212
G1 X169.648 Y152.273 E22.21776
G1 X169.182 Y152.311 E22.23331
G1 X168.96 Y152.324 E22.24071
G1 X168.433 Y152.342 E22.25825
G1 X167.525 Y152.35 E22.28845
G1 X52.287 Y152.35 E26.12128
G1 X52.137 Y152.349 E26.12627
G1 X51.431 Y152.339 E26.14975
G1 X51.028 Y152.326 E26.16317
G1 X50.741 Y152.311 E26.17272
G1 X50.318 Y152.28 E26.18683
G1 X49.918 Y152.243 E26.20019
G1 X48.669 Y152.052 E26.24222
G1 X47.975 Y151.903 E26.26583
G1 X46.92 Y151.619 E26.30216
G1 X46.502 Y151.483 E26.31678
G1 X45.604 Y151.145 E26.3487
G1 X45.126 Y150.94 E26.366
G1 X44.114 Y150.441 E26.40352
G1 X43.87 Y150.304 E26.41283
G1 X43.413 Y150.031 E26.43054
G1 X42.973 Y149.754 E26.44783
G1 X42.06 Y149.11 E26.48499
G1 X41.862 Y148.954 E26.49337
G1 X41.443 Y148.607 E26.51147
G1 X41.1 Y148.307 E26.52663
G1 X40.19 Y147.408 E26.56917
G1 X39.7 Y146.862 E26.59357
G1 X39.016 Y146.017 E26.62973
G1 X38.784 Y145.698 E26.64285
G1 X38.251 Y144.889 E26.67507
G1 X38.018 Y144.498 E26.69021
G1 X37.434 Y143.368 E26.73252
G1 X37.117 Y142.653 E26.75853
G1 X36.69 Y141.52 E26.7988
G1 X36.584 Y141.181 E26.81062
G1 X36.371 Y140.395 E26.8377
G1 X36.27 Y139.956 E26.85268
G1 X36.056 Y138.665 E26.89621
G1 X35.977 Y137.898 E26.92185
G1 X35.937 Y137.39 E26.9388
G1 X35.921 Y137.097 E26.94856
G1 X35.905 Y136.612 E26.9647
G1 X35.9 Y136.045 E26.98356
G1 X35.9 Y84.037 E28.71335
G1 X35.901 Y83.887 E28.71834
G1 X35.911 Y83.18 E28.74186
G1 X35.925 Y82.775 E28.75534
G1 X35.94 Y82.489 E28.76486
G1 X35.97 Y82.068 E28.7789
G1 X36.007 Y81.668 E28.79226
G1 X36.198 Y80.419 E28.83429
G1 X36.347 Y79.725 E28.8579
G1 X36.625 Y78.688 E28.89361
G1 X36.756 Y78.283 E28.90776
G1 X37.097 Y77.374 E28.94005
G1 X37.311 Y76.874 E28.95814
G1 X37.822 Y75.839 E28.99653
G1 X37.959 Y75.596 E29.00581
G1 X38.22 Y75.159 E29.02274
G1 X38.481 Y74.744 E29.03905
G1 X39.111 Y73.848 E29.07548
G1 X39.285 Y73.626 E29.08486
G1 X39.644 Y73.193 E29.10357
G1 X40.009 Y72.775 E29.12202
G1 X40.818 Y71.944 E29.1606
G1 X40.992 Y71.784 E29.16846
G1 X41.391 Y71.435 E29.18609
G1 X41.782 Y71.11 E29.203
G1 X42.67 Y70.447 E29.23986
G1 X42.932 Y70.272 E29.25034
G1 X43.4 Y69.978 E29.26872
G0 F6000 X43.604 Y70.321
G1 F1200 X44.046 Y70.058 E29.28583
G1 X45.03 Y69.544 E29.32275
G1 X45.269 Y69.435 E29.33149
G1 X45.697 Y69.251 E29.34699
G1 X46.197 Y69.05 E29.36491
G1 X47.317 Y68.673 E29.40421
G1 X47.548 Y68.61 E29.41218
G1 X47.945 Y68.511 E29.42579
G1 X48.384 Y68.41 E29.44077
G1 X49.626 Y68.204 E29.48264
G1 X50.393 Y68.125 E29.50829
G1 X50.844 Y68.088 E29.52334
G1 X51.067 Y68.075 E29.53077
G1 X51.522 Y68.059 E29.54591
G1 X52.037 Y68.052 E29.56304
G1 X52.162 Y68.051 E29.5672
G1 X52.879 Y68.05 E29.59105
G1 X167.713 Y68.05 E33.41044
G1 X167.857 Y68.051 E33.41523
G1 X168.563 Y68.061 E33.43871
G1 X168.951 Y68.074 E33.45163
G1 X169.238 Y68.089 E33.46119
G1 X169.645 Y68.118 E33.47476
G1 X170.045 Y68.155 E33.48812
G1 X171.247 Y68.339 E33.52856
G1 X171.941 Y68.488 E33.55217
G1 X172.956 Y68.761 E33.58713
G1 X173.374 Y68.897 E33.60175
G1 X174.238 Y69.223 E33.63246
G1 X174.716 Y69.428 E33.64976
G1 X175.69 Y69.908 E33.68588
G1 X175.934 Y70.045 E33.69518
G1 X176.357 Y70.296 E33.71154
G1 X176.799 Y70.573 E33.72889
G1 X177.729 Y71.231 E33.76678
G1 X177.924 Y71.386 E33.77507
G1 X178.284 Y71.686 E33.79066
G1 X178.622 Y71.981 E33.80558
G1 X179.507 Y72.854 E33.84692
G1 X180.013 Y73.418 E33.87213
G1 X180.691 Y74.26 E33.90808
G1 X180.922 Y74.58 E33.92121
G1 X181.412 Y75.325 E33.95087
G1 X181.687 Y75.786 E33.96872
G1 X182.223 Y76.813 E34.00725
G1 X182.335 Y77.061 E34.0163
G1 X182.507 Y77.464 E34.03087
G1 X182.701 Y77.948 E34.04822
G1 X183.056 Y78.997 E34.08505
G1 X183.127 Y79.251 E34.09382
G1 X183.251 Y79.74 E34.1106
G1 X183.349 Y80.172 E34.12534
G1 X183.548 Y81.376 E34.16592
G1 X183.622 Y82.089 E34.18977
G1 X183.66 Y82.572 E34.20588
G1 X183.677 Y82.876 E34.21601
G1 X183.693 Y83.352 E34.23185
G1 X183.7 Y84.112 E34.25713
G1 X183.7 Y135.952 E35.98133
G1 X183.699 Y136.094 E35.98605
G1 X183.689 Y136.811 E36.0099
G1 X183.677 Y137.191 E36.02255
G1 X183.663 Y137.464 E36.03164
G1 X183.633 Y137.874 E36.04532
G1 X183.595 Y138.288 E36.05914
G1 X183.411 Y139.497 E36.09982
G1 X183.262 Y140.191 E36.12343
G1 X182.989 Y141.206 E36.15838
G1 X182.853 Y141.624 E36.173
G1 X182.528 Y142.486 E36.20364
G1 X182.324 Y142.962 E36.22087
G1 X181.855 Y143.916 E36.25623
G1 X181.721 Y144.156 E36.26537
G1 X181.459 Y144.599 E36.28249
G1 X181.179 Y145.046 E36.30003
G1 X180.512 Y145.988 E36.33842
G1 X180.355 Y146.185 E36.3468
G1 X180.064 Y146.533 E36.36189
G1 X179.77 Y146.87 E36.37676
G1 X178.896 Y147.757 E36.41818
G1 X178.332 Y148.263 E36.44338
G1 X177.502 Y148.932 E36.47884
G1 X177.183 Y149.163 E36.49194
G1 X176.396 Y149.68 E36.52326
G1 X175.933 Y149.954 E36.54115
G1 X174.97 Y150.456 E36.57727
G1 X174.731 Y150.565 E36.58601
G1 X174.303 Y150.749 E36.6015
G1 X173.803 Y150.95 E36.61943
G1 X172.683 Y151.327 E36.65873
G1 X172.452 Y151.39 E36.66669
G1 X172.055 Y151.489 E36.6803
G1 X171.616 Y151.59 E36.69529
G1 X170.374 Y151.796 E36.73716
G1 X169.607 Y151.875 E36.7628
G1 X169.158 Y151.912 E36.77779
G1 X168.936 Y151.925 E36.78518
G1 X168.43 Y151.942 E36.80202
G1 X167.522 Y151.95 E36.83223
G1 X52.287 Y151.95 E40.66496
G1 X52.143 Y151.949 E40.66975
G1 X51.437 Y151.939 E40.69323
G1 X51.049 Y151.926 E40.70614
G1 X50.762 Y151.911 E40.7157
G1 X50.355 Y151.882 E40.72927
G1 X49.955 Y151.845 E40.74263
G1 X48.753 Y151.661 E40.78308
G1 X48.059 Y151.512 E40.80669
G1 X47.044 Y151.239 E40.84165
G1 X46.626 Y151.103 E40.85627
G1 X45.762 Y150.777 E40.88698
G1 X45.284 Y150.572 E40.90428
G1 X44.31 Y150.092 E40.94039
G1 X44.066 Y149.955 E40.9497
G1 X43.626 Y149.693 E40.96673
G1 X43.186 Y149.416 E40.98403
G1 X42.308 Y148.796 E41.01978
G1 X42.11 Y148.64 E41.02816
G1 X41.707 Y148.306 E41.04557
G1 X41.364 Y148.006 E41.06073
G1 X40.488 Y147.141 E41.10167
G1 X39.998 Y146.595 E41.12607
G1 X39.34 Y145.781 E41.16089
G1 X39.108 Y145.462 E41.174
G1 X38.595 Y144.684 E41.205
G1 X38.362 Y144.293 E41.22014
G1 X37.799 Y143.206 E41.26085
G1 X37.482 Y142.491 E41.28687
G1 X37.072 Y141.401 E41.3256
G1 X36.966 Y141.062 E41.33741
G1 X36.761 Y140.305 E41.3635
G1 X36.66 Y139.866 E41.37848
G1 X36.454 Y138.624 E41.42036
G1 X36.375 Y137.857 E41.446
G1 X36.336 Y137.368 E41.46232
G1 X36.32 Y137.075 E41.47208
G1 X36.305 Y136.609 E41.48758
G1 X36.3 Y136.042 E41.50644
G1 X36.3 Y84.037 E43.23614
G1 X36.301 Y83.893 E43.24093
G1 X36.311 Y83.186 E43.26444
G1 X36.324 Y82.796 E43.27742
G1 X36.339 Y82.51 E43.28695
G1 X36.368 Y82.105 E43.30045
G1 X36.405 Y81.705 E43.31381
G1 X36.589 Y80.503 E43.35426
G1 X36.738 Y79.809 E43.37787
G1 X37.006 Y78.811 E43.41224
G1 X37.137 Y78.406 E43.42639
G1 X37.465 Y77.532 E43.45744
G1 X37.679 Y77.032 E43.47553
G1 X38.171 Y76.036 E43.51248
G1 X38.308 Y75.793 E43.52176
G1 X38.559 Y75.372 E43.53806
G1 X38.82 Y74.957 E43.55437
G1 X39.426 Y74.095 E43.58941
G1 X39.6 Y73.873 E43.59879
G1 X39.945 Y73.456 E43.61679
G1 X40.31 Y73.038 E43.63525
G1 X41.089 Y72.239 E43.67237
G1 X41.263 Y72.079 E43.68023
G1 X41.647 Y71.743 E43.6972
G1 X42.038 Y71.418 E43.71411
G1 X42.893 Y70.78 E43.74959
G1 X43.155 Y70.605 E43.76007
G1 X43.604 Y70.321 E43.77774
G1 F2700 E38.77774
;MESH:CAN_Transmitter_Lid.STL
G0 F6000 X70.975 Y77.623
G0 X155.844 Y100.265
G0 X155.939 Y100.291
G0 X154.44 Y101.395
G0 X156.382 Y102.725
;TYPE:WALL-INNER
G1 F2700 E43.77774
G1 F1200 X157.112 Y102.983 E43.80349
G1 X157.846 Y103.106 E43.82825
G1 X158.248 Y103.125 E43.84163
